Mono Glyph Icons/misc/misc-unfilled/bolt.svg

<svg height="48" viewBox="0 -960 960 960" width="48" xmlns="http://www.w3.org/2000/svg"><path d="m404-181 265-321h-172l33-264-241 347h149zm-66-151h-125q-28.87 0-42.44-25-13.56-25 3.44-49l376-542q10-14 25-18.5t30 1.5q15 5 24 19.67 9 14.67 7 30.33l-41 326h159q30.36 0 42.68 27t-5.68 50l-410 494q-10.44 12.9-25.72 16.45-15.28 3.55-30.28-3.7-14-6.25-21.5-19.63-7.5-13.37-5.5-30.12z"/></svg>

<svg xmlns="http://www.w3.org/2000/svg" height="48" viewBox="0 -960 960 960" width="48"><path d="m404-181 265-321H497l33-264-241 347h149l-34 238Zm-66-151H213q-28.87 0-42.44-25Q157-382 174-406l376-542q10-14 25-18.5t30 1.5q15 5 24 19.67 9 14.67 7 30.33l-41 326h159q30.36 0 42.68 27T791-512L381-18Q370.56-5.1 355.28-1.55 340 2 325-5.25q-14-6.25-21.5-19.63Q296-38.25 298-55l40-277Zm140-140Z"/></svg>
